X: 53
T:Hankie Dance - Upton on Severn
N:Tune as played for Grand Union Morris
M:6/8
L:1/8
K:G
"A" D | G2 G BdB |G3-G2  D | G2 G BdB | A3-A3 | B3 G3 |  c3 e3  | d2 d c
BA |1 G3-G2  |2 G3-G3 ||
"B" F2 G A3 |  F2  E  D3 | A2 A ABc | d3-d2 c | B2 A G2 F | E2 F G2 A |
BcB AGF | E3 D3
 | G2 G BdB |G3-G2  D | G2 G BdB | A3-A3 | B3 G3 |  c3 e3  | d2 d cBA |
G3-G2  ||
